X: 6364
T: Cashman's Favourite
R: polka
M: 2/4
K: Dmajor
F2|:AF DF|A2 AB|AF DF|E2 E>F|
AF DF|Ad d>B|AF EF|D2 D2:|
|:f>e dB|Ad d>e|f>e df|e2 e2|
f>e dB|Ad d>B|AF EF|D2 D2:|

